src/svg/featured/nvidia.svg

<svg fill="none" height="80" viewBox="0 0 109 80" width="109" xmlns="http://www.w3.org/2000/svg"><g fill="#fff"><path d="m35.3839 10.5923c-13.8904 1.0619-20.8473 11.3261-20.8473 11.3261s5.3172 17.116 20.8473 19.0698v3.9581c-21.1626-1.9973-28.70861-23.8115-28.70861-23.8115s13.32321-13.03078 28.70861-14.2664z"/><path d="m35.3839 36.7409c1.099.1948 2.2691.3107 3.5189.3107 13.6373 0 26.7271-15.9168 26.7271-15.9168s-11.397-14.93537-28.8886-14.34584c-.4541.01545-.9057.04482-1.3574.07944v-6.8684h48.2353v50.9145h-48.2353v-5.9682c1.0158.098 2.0493.1633 3.1254.1633 11.1638 0 30.8556-5.7024 39.3049-12.7763-.6886-.6979-2.8552-1.8936-4.8981-3.0211-1.6356-.9026-3.192-1.7616-3.8471-2.2862-8.8864 7.6706-18.0638 14.1517-30.7542 14.1517-1.0167 0-1.9911-.0702-2.9309-.1895v-4.2473c-11.7373-2.0925-14.9953-14.2932-14.9953-14.2932s5.6356-6.2431 14.9953-7.2555v3.9777c-.0036 0-.0069-.0006-.0098-.0012-.0027-.0005-.0053-.001-.0081-.001-4.9125-.5895-8.7501 3.9996-8.7501 3.9996s2.1509 7.7254 8.7677 9.9489l.0003-13.9463c4.5905.5547 5.7434 2.4903 8.2952 6.7735.1702.2857.3466.5819.5307.8888l6.5475-5.5209s-4.7796-6.2684-12.8366-6.2684c-.8758-.0003-1.7139.0612-2.5368.1493v-4.5999c.447-.0313.8974-.0551 1.3574-.0696 12.5782-.3951 20.8303 10.809 20.8303 10.809s-8.913 12.3788-18.4697 12.3788c-1.3752 0-2.6086-.2212-3.7183-.5943z"/><path clip-rule="evenodd" d="m87.4449 60.0425-7.55 19.1294h5.3314l1.1942-3.3801h8.9349l1.1303 3.3801h5.7873l-7.606-19.1319zm3.5088 3.4898 3.2762 8.9628h-6.6539z" fill-rule="evenodd"/><path d="m72.287 79.179h5.409v-19.1424l-5.4099-.0012z"/><path d="m34.7371 60.0354-4.5128 15.1718-4.323-15.1706-5.8362-.0012 6.1741 19.1436h7.7924l6.2239-19.1436z"/><path clip-rule="evenodd" d="m51.2373 60.0354v19.1436h8.769c4.6719 0 6.1975-.7766 7.8471-2.5189 1.1651-1.2232 1.9188-3.9078 1.9188-6.8424 0-2.6916-.6377-5.0909-1.7497-6.5859-2.0035-2.6737-4.8896-3.1964-9.1968-3.1964zm5.3635 4.1684h2.3247c3.3727 0 5.554 1.5141 5.554 5.4436 0 3.9303-2.1813 5.4448-5.554 5.4448h-2.3247z" fill-rule="evenodd"/><path d="m0 60.0088v19.1702h5.45472v-14.556l4.22652.0012c1.39946 0 2.39706.3487 3.07096 1.0687.8548.9104 1.2038 2.38 1.2038 5.0683v8.4178h5.2856v-10.5917c0-7.5593-4.8182-8.5785-9.53254-8.5785z"/><path d="m42.532 60.0354.0021 19.1436h5.4065v-19.1436z"/><g clip-rule="evenodd" fill-rule="evenodd"><path d="m105.586 77.6827h.281l.652 1.1447h.716l-.722-1.193c.373-.0266.68-.2043.68-.7066 0-.6242-.43-.8248-1.159-.8248h-1.055v2.7244h.606zm0-.4613v-.656h.421c.23 0 .542.0186.542.2984 0 .3045-.161.3576-.432.3576z"/><path d="m108.649 77.4687c0-1.5997-1.243-2.5284-2.627-2.5284-1.395 0-2.638.9287-2.638 2.5284 0 1.5989 1.243 2.5313 2.638 2.5313 1.385 0 2.627-.9324 2.627-2.5313zm-.758 0c0 1.1658-.856 1.9482-1.869 1.9482v-.0071c-1.043.0071-1.883-.7753-1.883-1.9408 0-1.1651.84-1.9454 1.883-1.9454 1.013-.0003 1.869.78 1.869 1.9451z"/></g></g></svg>

<svg width="109" height="80" viewBox="0 0 109 80" fill="none" xmlns="http://www.w3.org/2000/svg">
<path d="M35.3839 10.5923C21.4935 11.6542 14.5366 21.9184 14.5366 21.9184C14.5366 21.9184 19.8538 39.0344 35.3839 40.9882V44.9463C14.2213 42.949 6.67529 21.1348 6.67529 21.1348C6.67529 21.1348 19.9985 8.10402 35.3839 6.8684V10.5923Z" fill="white"/>
<path d="M35.3839 36.7409C36.4829 36.9357 37.653 37.0516 38.9028 37.0516C52.5401 37.0516 65.6299 21.1348 65.6299 21.1348C65.6299 21.1348 54.2329 6.19943 36.7413 6.78896C36.2872 6.80441 35.8356 6.83378 35.3839 6.8684V0H83.6192V50.9145H35.3839V44.9463C36.3997 45.0443 37.4332 45.1096 38.5093 45.1096C49.6731 45.1096 69.3649 39.4072 77.8142 32.3333C77.1256 31.6354 74.959 30.4397 72.9161 29.3122C71.2805 28.4096 69.7241 27.5506 69.069 27.026C60.1826 34.6966 51.0052 41.1777 38.3148 41.1777C37.2981 41.1777 36.3237 41.1075 35.3839 40.9882V36.7409C23.6466 34.6484 20.3886 22.4477 20.3886 22.4477C20.3886 22.4477 26.0242 16.2046 35.3839 15.1922V19.1699C35.384 19.1699 35.3838 19.1699 35.3839 19.1699C35.3803 19.1699 35.377 19.1693 35.3741 19.1687C35.3714 19.1682 35.3688 19.1677 35.366 19.1677C30.4535 18.5782 26.6159 23.1673 26.6159 23.1673C26.6159 23.1673 28.7668 30.8927 35.3836 33.1162L35.3839 19.1699C39.9744 19.7246 41.1273 21.6602 43.6791 25.9434C43.8493 26.2291 44.0257 26.5253 44.2098 26.8322L50.7573 21.3113C50.7573 21.3113 45.9777 15.0429 37.9207 15.0429C37.0449 15.0426 36.2068 15.1041 35.3839 15.1922V10.5923C35.8309 10.561 36.2813 10.5372 36.7413 10.5227C49.3195 10.1276 57.5716 21.3317 57.5716 21.3317C57.5716 21.3317 48.6586 33.7105 39.1019 33.7105C37.7267 33.7105 36.4933 33.4893 35.3836 33.1162L35.3839 36.7409Z" fill="white"/>
<path fill-rule="evenodd" clip-rule="evenodd" d="M87.4449 60.0425L79.8949 79.1719H85.2263L86.4205 75.7918H95.3554L96.4857 79.1719H102.273L94.667 60.04L87.4449 60.0425ZM90.9537 63.5323L94.2299 72.4951H87.576L90.9537 63.5323Z" fill="white"/>
<path d="M72.287 79.179H77.696V60.0366L72.2861 60.0354L72.287 79.179Z" fill="white"/>
<path d="M34.7371 60.0354L30.2243 75.2072L25.9013 60.0366L20.0651 60.0354L26.2392 79.179H34.0316L40.2555 60.0354H34.7371Z" fill="white"/>
<path fill-rule="evenodd" clip-rule="evenodd" d="M51.2373 60.0354V79.179H60.0063C64.6782 79.179 66.2038 78.4024 67.8534 76.6601C69.0185 75.4369 69.7722 72.7523 69.7722 69.8177C69.7722 67.1261 69.1345 64.7268 68.0225 63.2318C66.019 60.5581 63.1329 60.0354 58.8257 60.0354H51.2373ZM56.6008 64.2038H58.9255C62.2982 64.2038 64.4795 65.7179 64.4795 69.6474C64.4795 73.5777 62.2982 75.0922 58.9255 75.0922H56.6008V64.2038Z" fill="white"/>
<path d="M0 60.0088V79.179H5.45472V64.623L9.68124 64.6242C11.0807 64.6242 12.0783 64.9729 12.7522 65.6929C13.607 66.6033 13.956 68.0729 13.956 70.7612V79.179H19.2416V68.5873C19.2416 61.028 14.4234 60.0088 9.70906 60.0088H0Z" fill="white"/>
<path d="M42.532 60.0354L42.5341 79.179H47.9406V60.0354H42.532Z" fill="white"/>
<path fill-rule="evenodd" clip-rule="evenodd" d="M105.586 77.6827H105.867L106.519 78.8274H107.235L106.513 77.6344C106.886 77.6078 107.193 77.4301 107.193 76.9278C107.193 76.3036 106.763 76.103 106.034 76.103H104.979V78.8274H105.585L105.586 77.6827ZM105.586 77.2214V76.5654H106.007C106.237 76.5654 106.549 76.584 106.549 76.8638C106.549 77.1683 106.388 77.2214 106.117 77.2214H105.586Z" fill="white"/>
<path fill-rule="evenodd" clip-rule="evenodd" d="M108.649 77.4687C108.649 75.869 107.406 74.9403 106.022 74.9403C104.627 74.9403 103.384 75.869 103.384 77.4687C103.384 79.0676 104.627 80 106.022 80C107.407 80 108.649 79.0676 108.649 77.4687ZM107.891 77.4687C107.891 78.6345 107.035 79.4169 106.022 79.4169V79.4098C104.979 79.4169 104.139 78.6345 104.139 77.469C104.139 76.3039 104.979 75.5236 106.022 75.5236C107.035 75.5233 107.891 76.3036 107.891 77.4687Z" fill="white"/>
</svg>
